!!!OTL: 569. Die Freudenlose.
!!!ARE: Europa, Mitteleuropa, Deutschland, West -; Mitteldeutschland
!!!SCT: E0569
!!!TXL: @@DE
!!!YEM: Copyright 1995, estate of Helmut Schaffrath.
**kern	**text
*ICvox	*
*M3/4	*
*k[b-e-]	*
*B-:	*
!LO:TX:a:t=Mäßig langsam.	!
!LO:TX:a:t=Jn Weſt-u. Mitteldeutſchland bekannt.	!
{4f	Auf
=1	=1
8b-/	die-
16aL	-ſer
16gJ	.
4f	Welt
4g	hab
=2	=2
8f	ich
16fL	kein
16e-J	.
8d}	Freud,
{8f	ich
8b-	hab
8cc	ein
=3	=3
4dd	Schatʒ
4dd	und
16ddqq	.
8cc	der
8cc	iſt
=4	=4
4b-	weit;
8r}	.
{8b-	er
8b-	iſt
8b-	ſo
=5	=5
(4g	weit,
8e-)	.
8cc	er
8cc	kommt
8cc	nicht
=6	=6
(4a	her
8f)}	.
{8f	ach
8b-	wenn
8cc	ich
=7	=7
4dd	bei
4dd	mei'm
16ddqq	.
8cc	Schätʒ-
8cc	-chen
=8	=8
4b-	wär!
4r}	.
==	==
!!!AGN: Liebes - Lied, Trennung
!!!ONB: ESAC (Essen Associative Code) Database: ERK1
!!!AMT: simple triple
!!!AIN: vox
!!!EED: Helmut Schaffrath
!!!EEV: 1.0
!!!GTL: Liebeslieder [Neuere (aus dem 18. bis 19. Jahrh.) - Liebeslust]
!!!URL-scan: https://rosdok.uni-rostock.de/mcrviewer/recordIdentifier/rosdok_ppn745177662/iview2/phys_0399.iview2?x=-128.77276441889308&y=1266.0572679350153&scale=0.5870222003877485&rotation=0&layout=singlePageLayout
!!!ENC: Anna Maria Matuszewska
!!!EEV: 2024/11/12
*-	*-
